X: 5
T: No_14_The_Thunderbird_Will_Help_Me_Cure_This_Sick_Man.krn
N: Derived from No_14_The_Thunderbird_Will_Help_Me_Cure_This_Sick_Man.krn
%%abc-version 2.0
%%abcx-abcm2ps-target-version 5.9.1 (29 Sep 2008)
%%abc-creator hum2abc beta
%%abcx-conversion-date 2019/03/15 08:26:49
%%humdrum-veritas 1258911715
%%humdrum-veritas-data 2096882510
%%linebreak <none>
%%barnumbers 0
L: 1/8
M: 2/4
%%staves {1 2}
V: 1 clef=bass
V: 2 clef=bass
K: Bb
[V:1] [K:clef=bass][M:2/4]C2(3CB,G, ||  
[V:2] [K:clef=bass][M:2/4]G,,2G,,2 ||  
[V:1] [M:3/4]G,2z2C3/B,/ ||  
[V:2] [M:3/4]G,,2G,,2G,,2 ||  
[V:1] [M:2/4]C4- | 
[V:2] [M:2/4]G,,2z2 | 
[V:1] CB, B,G, | 
[V:2] z4 | 
[V:1] B,G,G,2 | 
[V:2] z4 | 
[V:1] G,2F, z | 
[V:2] z4 | 
[V:1] F,D,D,2 | 
[V:2] z4 | 
[V:1] (3F,D,B,, D, z | 
[V:2] z4 | 
[V:1] B,,4 | 
[V:2] z4 | 
[V:1] D,C, C, z | 
[V:2] z4 | 
[V:1] F,D, D, z | 
[V:2] z4 | 
[V:1] G,2G,F, | 
[V:2] z4 | 
[V:1] F,2F,D, | 
[V:2] z4 | 
[V:1] F,D,D,2 | 
[V:2] z4 | 
[V:1] B,,2B,,2 | 
[V:2] z4 | 
[V:1] F,D, D, z | 
[V:2] z4 | 
[V:1] G,2G,F, | 
[V:2] z4 | 
[V:1] F,2F,D, | 
[V:2] z4 | 
[V:1] F,D,D,2 | 
[V:2] z4 | 
[V:1] B,,2B,,2 | 
[V:2] z4 | 
[V:1] D,2D, z |]  
[V:2] z4 |]  



